static/images/mobile/copyright/wikipedia-tagline-gom.svg

<?xml version="1.0" encoding="UTF-8"?>
<svg width="100px" height="25px" viewBox="0 0 100 25" version="1.1" xmlns="http://www.w3.org/2000/svg" xmlns:xlink="http://www.w3.org/1999/xlink">
    <title>gom-tagline</title>
    <g id="Page-1" stroke="none" stroke-width="1" fill="none" fill-rule="evenodd">
        <path d="M9.41266558,7.51864749 L9.4130753,18.415606 C9.8881387,18.5263767 10.3152673,18.7713612 10.6944655,19.1505594 C11.2173996,19.698998 11.4788605,20.368592 11.4788605,21.1593661 C11.4788605,22.0394121 11.0898526,22.7855319 10.3118369,23.3977378 C9.53383337,24.0227021 8.60276617,24.3351842 7.51864749,24.3351842 C6.60035089,24.3351842 5.64377919,24.1119739 4.64893237,23.6655779 C3.64135167,23.231928 2.64651709,22.6069759 1.66442865,21.7906973 L2.56361217,20.6428113 C3.49467938,21.420827 4.38748372,22.0138954 5.24201295,22.4220408 C6.08379605,22.8429323 6.84267423,23.053372 7.51864749,23.053372 C8.25840035,23.053372 8.8897438,22.8684368 9.41266558,22.4985665 C9.93558737,22.128684 10.1970483,21.6822879 10.1970483,21.1593661 C10.1970483,20.7257162 10.0631343,20.3622251 9.79529427,20.0688683 C9.51469582,19.7755237 9.18308838,19.6288514 8.80045969,19.6288514 C8.39232651,19.6288514 8.00969783,19.7053771 7.65257365,19.8584286 C7.29544946,20.0114801 6.9957257,20.2282989 6.75339012,20.5088974 L5.87334415,19.6288514 C6.20496384,19.2207182 6.62585539,18.9082361 7.1360188,18.691405 C7.45604081,18.5473963 7.79362846,18.4485543 8.14877876,18.3948791 L8.14999093,12.9902376 L3.55844675,12.9902376 L3.55844675,13.8894212 C3.5584345,14.0934939 3.52012266,14.2720499 3.44371936,14.4251013 C3.36719362,14.5781528 3.27790952,14.6546785 3.17587928,14.6546785 C2.88252246,14.6546785 2.38510518,14.3358295 1.68362742,13.6981068 C0.982137424,13.0603964 0.631392424,12.6140004 0.631392424,12.3589064 C0.631392424,12.1931088 0.695184278,12.0464366 0.822706765,11.9188773 C0.950253741,11.7913426 1.09692603,11.7275752 1.26273587,11.727563 L2.29583331,11.727563 L2.29583331,7.51864749 L0,7.51864749 L0,6.37076144 L27.1666364,6.37076144 L27.1666364,7.51864749 L20.2410573,7.51864749 L20.2410573,11.4788605 C20.5216435,11.2748 20.8468718,11.1153693 21.2167543,11.0005685 C21.5993708,10.8858411 21.9947578,10.828404 22.4029032,10.8283917 C23.3849794,10.828404 24.2203833,11.1663906 24.9091272,11.8423516 C25.6105927,12.505591 25.9613377,13.3154781 25.96135,14.2720499 C25.9613377,15.1393497 25.8529895,15.9364907 25.6361217,16.663473 C25.4192784,17.3777214 25.1067963,17.9835481 24.6986753,18.4809654 L23.6655779,17.9644105 C24.0099314,17.49251 24.2650254,16.9440714 24.4308352,16.3191072 C24.6093912,15.6813968 24.6986631,14.9990443 24.6986753,14.2720499 C24.6986631,13.6470978 24.4690859,13.1114177 24.0099437,12.6650094 C23.5635354,12.205855 23.0278552,11.9762778 22.4029032,11.9762778 C21.9564949,11.9762778 21.5419826,12.0528035 21.1593661,12.205855 C20.7767252,12.3589064 20.4706223,12.5821167 20.2410573,12.875449 L20.2410573,19.1122966 L18.9592451,19.1122966 L18.9592451,12.1101917 L15.8982156,12.1101917 C15.4263028,12.1867174 15.030928,12.4290652 14.7120667,12.8371862 C14.4059638,13.2453316 14.2529123,13.7236236 14.2529123,14.2720499 C14.2529123,14.9480354 14.5207524,15.6431339 15.0564325,16.35737 C15.6048711,17.05886 16.35737,17.6774451 17.3139418,18.2131253 L16.663473,19.1122966 C15.5283453,18.4490817 14.6291618,17.6838243 13.9659469,16.8165245 C13.3027198,15.9492369 12.9711123,15.1010868 12.9711123,14.2720499 C12.9711123,13.7618864 13.0667389,13.3154781 13.2580777,12.9328495 C13.4493921,12.5374747 13.6917276,12.2632554 13.9850722,12.1101917 L11.7084377,12.1101917 L11.7084377,10.9623056 L18.9592451,10.9623056 L18.9592451,7.51864749 L9.41266558,7.51864749 Z M8.15005215,7.51864749 L3.55850797,7.51864749 L3.55850797,11.727563 L8.15005215,11.727563 L8.15005215,7.51864749 Z M48.7086313,6.37076144 L48.7086313,7.51864749 L46.5276478,7.51864749 L46.5276478,19.1122966 L45.2649731,19.1122966 L45.2649731,15.0373072 C44.9205951,15.4454404 44.5124619,15.7643017 44.0405613,15.9938789 C43.5813947,16.2106978 43.0967358,16.3191194 42.5865723,16.3191072 C41.5279582,16.3191194 40.6224077,15.9811205 39.8699087,15.3051473 C39.1301558,14.629174 38.7602855,13.8192746 38.7602855,12.875449 C38.7602855,11.9188896 39.1301558,11.1089902 39.8699087,10.445763 C40.6224077,9.76978977 41.5279582,9.43180314 42.5865723,9.4317909 C42.892663,9.43180314 43.1860199,9.47648193 43.4666183,9.56571706 C43.7472045,9.64224279 44.0086654,9.76978977 44.251001,9.94834574 L43.6005322,10.9623056 C43.4474808,10.8475782 43.2880501,10.7582452 43.1222525,10.6944655 C42.9564427,10.6179398 42.7778744,10.5797382 42.5865723,10.5797382 C41.8850823,10.5797504 41.2856226,10.8029484 40.7882175,11.2493445 C40.2908002,11.6957528 40.0420855,12.2378121 40.0420855,12.8755103 C40.0420855,13.4622117 40.2908002,13.9723873 40.7882175,14.406025 C41.2856226,14.8269288 41.8850823,15.0373684 42.5865723,15.0373684 C43.0839774,15.0373684 43.5686485,14.8715708 44.0405613,14.5399511 C44.5124619,14.1955853 44.9205951,13.7236848 45.2649731,13.124225 L45.2649731,7.51870871 L36.1392729,7.51864749 L36.1392729,19.1122966 L34.8765983,19.1122966 L34.8765983,7.51864749 L32.7147523,7.51864749 L32.7147523,6.37076144 L34.8765983,6.37076144 C34.7618709,6.21772221 34.6661586,6.00090337 34.5896329,5.72029268 C34.525841,5.43971872 34.4940063,5.10809903 34.4940063,4.7254581 C34.4940063,3.70513128 34.8893934,2.83784368 35.6801552,2.12358306 C36.4836755,1.39661306 37.4466264,1.03309744 38.5690079,1.03309744 C39.9081961,1.03309744 41.2218919,1.48588492 42.5100833,2.39142314 C43.8110086,3.2969981 44.9142526,4.54053519 45.8198153,6.12205892 L44.3084381,6.12205892 C43.5941898,4.89765938 42.7268899,3.93470849 41.7065631,3.23320624 C40.6862118,2.51898236 39.640356,2.16187042 38.5690079,2.16184593 C37.7909922,2.16187042 37.127765,2.41695213 36.5793388,2.9271033 C36.0309002,3.42454507 35.756681,4.02399259 35.756681,4.7254581 C35.756681,5.10809903 35.7885157,5.43971872 35.8523075,5.72029268 C35.9288333,6.00090337 36.0244843,6.21772221 36.1392729,6.37076144 L48.7086313,6.37076144 Z M54.8880784,19.1122966 L49.0147342,14.1381237 L49.7799916,13.2580777 C49.8692512,13.2835455 50.0414525,13.3792945 50.2965342,13.5450554 C50.5516159,13.7108652 50.8067098,13.8702959 51.0617915,14.0233351 C52.0438677,14.0233473 52.8792717,13.6981068 53.5680155,13.0476381 C54.2694933,12.3844232 54.6202383,11.5872821 54.6202383,10.6562027 C54.4034072,10.9750762 54.1292002,11.2237788 53.7975927,11.4023347 C53.465973,11.5809029 53.1024819,11.6701748 52.7070949,11.6701748 C51.8653118,11.6701748 51.1446965,11.3768302 50.5452489,10.7901288 C49.9585475,10.2034397 49.665203,9.49557051 49.665203,8.66653353 C49.665203,7.85027942 49.9585475,7.16154779 50.5452489,6.60033865 C51.1446965,6.02640787 51.8653118,5.73943023 52.7070949,5.73943023 C53.7146756,5.73943023 54.4990705,6.11569198 55.0602674,6.86817873 C55.621452,7.62070221 55.9020505,8.68568333 55.9020505,10.0631343 C55.9020505,11.4023347 55.4875259,12.5438538 54.6585011,13.4876549 C53.8422225,14.4314805 52.8537672,14.9033933 51.693135,14.9033811 L55.6533357,18.0983367 L54.8880784,19.1122966 L54.8880784,19.1122966 M52.7070949,10.445763 C53.1662493,10.445763 53.5552572,10.2735862 53.8741185,9.92920818 C54.2057259,9.58485461 54.3715358,9.16396306 54.3715358,8.66653353 C54.3715358,8.20739136 54.2057259,7.81838349 53.8741185,7.49952217 C53.5552572,7.16791473 53.1662493,7.00210489 52.7070949,7.00210489 C52.222436,7.00210489 51.8015444,7.16791473 51.4444202,7.49952217 C51.1000544,7.81838349 50.9278776,8.20739136 50.9278776,8.66653353 C50.9278776,9.16396306 51.1000544,9.58485461 51.4444202,9.92920818 C51.8015444,10.2735862 52.222436,10.445763 52.7070949,10.445763 L52.7070949,10.445763 M75.2247989,7.51864749 L75.2247989,10.9623056 C75.5053851,10.4904051 75.8816346,10.1205348 76.3535474,9.85268245 C76.825448,9.57209624 77.3420028,9.43180314 77.9031997,9.4317909 C78.7194538,9.43180314 79.4081855,9.76978977 79.9693946,10.445763 C80.5433254,11.1089902 80.8302908,11.9188896 80.830303,12.875449 C80.8302908,13.6917276 80.6198511,14.5016271 80.1989718,15.3051473 C79.778068,16.0959092 79.1849874,16.8101575 78.4197423,17.4478679 L77.2718563,16.6826105 C77.9860924,16.1851933 78.547277,15.5984919 78.9554225,14.9225186 C79.3635557,14.2465454 79.5676161,13.5641929 79.5676284,12.875449 C79.5676161,12.2760138 79.4018185,11.7658381 79.0702111,11.3449343 C78.7513498,10.924055 78.3623419,10.7136153 77.9031997,10.7136031 C77.3164861,10.7136153 76.7680598,10.9368134 76.2578964,11.3831972 C75.7604669,11.8296055 75.416101,12.4099277 75.2247989,13.1241638 L75.2247989,19.1122966 L73.9621243,19.1122966 L73.9621243,15.2860097 C73.6560091,15.6431339 73.2797596,15.9237324 72.8333636,16.1277928 C72.3997136,16.3318655 71.9278131,16.433908 71.4176374,16.4338958 C70.4993286,16.433908 69.7149459,16.1150467 69.0644772,15.4773241 C68.4267545,14.8268676 68.1079055,14.0424726 68.1079055,13.1241638 C68.1079055,12.1038247 68.4777758,11.2365371 69.2175286,10.5222888 C69.9700276,9.79530651 70.8691989,9.43180314 71.9150547,9.4317909 C72.2211577,9.43180314 72.4826186,9.45725866 72.6994496,9.50831663 C72.9290146,9.54664072 73.0948244,9.60394319 73.1968669,9.68050566 L72.9481522,10.9623056 C72.7951007,10.873046 72.6292908,10.8092664 72.4507349,10.7709913 C72.284925,10.7327896 72.1063691,10.7135664 71.9150547,10.7135664 C71.2263231,10.7135786 70.6268756,10.9495228 70.1166999,11.4214233 C69.6192826,11.8933483 69.3705801,12.4609122 69.3705801,13.1241271 C69.3705801,13.685324 69.5682614,14.1699829 69.9636484,14.5781161 C70.3717816,14.9735031 70.8564528,15.1711966 71.4176374,15.1711844 C71.9022963,15.1711966 72.3742091,15.0245244 72.8333636,14.7311675 C73.292518,14.4250646 73.6687675,14.0169314 73.9621243,13.5067558 L73.9621243,7.51861075 L65.4295047,7.51864749 L65.4295047,19.1122966 L64.16683,19.1122966 L64.16683,15.0373072 C63.822452,15.4454404 63.4143188,15.7643017 62.9424182,15.9938789 C62.4832516,16.2106978 61.9985927,16.3191194 61.4884292,16.3191072 C60.4298151,16.3191194 59.5242646,15.9811205 58.7717656,15.3051473 C58.0320127,14.629174 57.6621424,13.8192746 57.6621424,12.875449 C57.6621424,11.9188896 58.0320127,11.1089902 58.7717656,10.445763 C59.5242646,9.76978977 60.4298151,9.43180314 61.4884292,9.4317909 C61.7945199,9.43180314 62.0878768,9.47648193 62.3684752,9.56571706 C62.6490614,9.64224279 62.9105223,9.76978977 63.1528579,9.94834574 L62.5023891,10.9623056 C62.3493377,10.8475782 62.189907,10.7582452 62.0241094,10.6944655 C61.8582996,10.6179398 61.6797313,10.5797382 61.4884292,10.5797382 C60.7869392,10.5797504 60.1874795,10.8029484 59.6900744,11.2493445 C59.1926572,11.6957528 58.9439424,12.2378121 58.9439424,12.8755103 C58.9439424,13.4622117 59.1926572,13.9723873 59.6900744,14.406025 C60.1874795,14.8269288 60.7869392,15.0373684 61.4884292,15.0373684 C61.9858343,15.0373684 62.4705055,14.8715708 62.9424182,14.5399511 C63.4143188,14.1955853 63.822452,13.7236848 64.16683,13.124225 L64.16683,7.51870871 L56.7055707,7.51870871 L56.7055707,6.37076144 L83.5278413,6.37076144 L78.9171596,0.765257365 L79.7972056,3.55271368e-15 L84.790516,6.37076144 L87.0671505,6.37076144 L87.0671505,7.51864749 L84.886167,7.51864749 L84.886167,19.1122966 L83.6234924,19.1122966 L83.6234924,7.51864749 L75.2247989,7.51864749 Z M93.1126837,19.1122966 L87.392391,14.2720499 L88.0237222,13.3728663 C88.3935926,13.6789815 88.6869494,13.9085587 88.9037682,14.061598 C89.1205871,14.2019033 89.2927761,14.2720499 89.4203231,14.2720499 C90.3768825,14.2720499 91.1867819,13.9021795 91.8500091,13.1624267 C92.5259823,12.4099277 92.863969,11.5043772 92.8639812,10.445763 C92.6471501,10.8411501 92.3282888,11.1536322 91.9074095,11.3831972 C91.4865057,11.6127866 91.0401096,11.7275752 90.5682091,11.727563 C89.8667191,11.7275752 89.2672716,11.4661143 88.7698543,10.9431803 C88.272437,10.4075124 88.0237222,9.77616896 88.0237222,9.04916221 C88.0237222,8.2329081 88.2915623,7.54417647 88.8272425,6.98296733 C89.375681,6.40903655 90.0388959,6.12205892 90.8169116,6.12205892 C91.7352205,6.12205892 92.5196031,6.5493419 93.1700841,7.40385888 C93.8205407,8.24565423 94.1457812,9.25962636 94.1457812,10.445763 C94.1457812,11.7594589 93.7567733,12.8754613 92.9787698,13.7937579 C92.2007541,14.712079 91.2696869,15.1712334 90.1855804,15.1712211 L93.8779411,18.2131253 L93.1126837,19.1122966 L93.1126837,19.1122966 M90.5682091,10.445763 C90.9890884,10.445763 91.3844755,10.3182283 91.754358,10.0631343 C92.1242283,9.80805264 92.4111937,9.47006601 92.6152664,9.04916221 C92.4239521,8.55175717 92.1624912,8.15000318 91.8308838,7.84388799 C91.5120224,7.53779729 91.1740358,7.38473357 90.8169116,7.38473357 C90.3960201,7.38473357 90.0325167,7.55054341 89.726426,7.88215086 C89.4330692,8.20101217 89.2863969,8.59002004 89.2863969,9.04916221 C89.2863969,9.44456151 89.4076137,9.77616896 89.6499003,10.0439968 C89.904982,10.3118491 90.2110849,10.445763 90.5682091,10.445763 L90.5682091,10.445763 M94.0118672,7.51864749 L94.0118672,6.37076144 L100,6.37076144 L100,7.51864749 L97.8381541,7.51864749 L97.8381541,19.1122966 L96.5563419,19.1122966 L96.5563419,7.51864749 L94.0118672,7.51864749 L94.0118672,7.51864749" id="gom-tagline" fill="#000000" fill-rule="nonzero"></path>
    </g>
</svg>

<svg xmlns="http://www.w3.org/2000/svg" width="100" height="25"><path fill="#000" fill-rule="nonzero" d="M9.413 7.519v10.897c.475.11.902.355 1.281.735.523.548.785 1.218.785 2.008 0 .88-.39 1.627-1.167 2.239-.778.625-1.71.937-2.793.937-.919 0-1.875-.223-2.87-.67-1.008-.433-2.002-1.058-2.985-1.874l.9-1.148c.93.778 1.823 1.37 2.678 1.779.842.42 1.6.631 2.277.631.74 0 1.37-.185 1.894-.554.523-.37.784-.817.784-1.34 0-.433-.134-.797-.402-1.09a1.332 1.332 0 0 0-.995-.44c-.408 0-.79.076-1.147.23-.358.152-.657.37-.9.65l-.88-.88c.332-.408.753-.72 1.263-.938.32-.144.658-.242 1.013-.296l.001-5.405H3.558v.9c0 .203-.038.382-.114.535-.077.153-.166.23-.268.23-.293 0-.79-.32-1.492-.957C.982 13.06.63 12.614.63 12.358c0-.165.064-.312.192-.44a.605.605 0 0 1 .44-.19h1.033v-4.21H0V6.372h27.167v1.148H20.24v3.96c.28-.204.606-.364.976-.478a4.108 4.108 0 0 1 1.186-.173c.982 0 1.817.338 2.506 1.014.702.664 1.052 1.473 1.052 2.43a8.34 8.34 0 0 1-.325 2.391c-.217.715-.53 1.32-.937 1.818l-1.033-.517c.344-.471.599-1.02.765-1.645.178-.638.268-1.32.268-2.047 0-.625-.23-1.16-.69-1.607a2.162 2.162 0 0 0-1.606-.689c-.447 0-.861.077-1.244.23a2.152 2.152 0 0 0-.918.67v6.236H18.96V12.11H15.9c-.473.077-.868.32-1.187.727-.306.408-.46.887-.46 1.435 0 .676.269 1.371.804 2.085.549.702 1.301 1.32 2.258 1.856l-.65.9c-1.136-.664-2.035-1.43-2.698-2.296-.663-.868-.995-1.716-.995-2.545 0-.51.096-.957.287-1.34.191-.395.434-.669.727-.822h-2.277v-1.148h7.251V7.52H9.413Zm-1.263 0H3.56v4.209H8.15v-4.21ZM48.71 6.37v1.148h-2.181v11.593h-1.263v-4.075a3.712 3.712 0 0 1-1.224.957c-.46.217-.944.325-1.454.325-1.059 0-1.965-.338-2.717-1.014-.74-.676-1.11-1.486-1.11-2.43 0-.956.37-1.766 1.11-2.43.752-.675 1.658-1.013 2.717-1.013.306 0 .599.044.88.134.28.076.542.204.784.382l-.65 1.014a1.985 1.985 0 0 0-.479-.268 1.263 1.263 0 0 0-.535-.114c-.702 0-1.301.223-1.799.67-.497.446-.746.988-.746 1.626 0 .586.249 1.096.746 1.53.498.42 1.097.631 1.799.631.497 0 .982-.165 1.454-.497.471-.344.88-.816 1.224-1.416V7.52h-9.126v11.593h-1.262V7.52h-2.162V6.37h2.162c-.115-.153-.21-.37-.287-.65a4.535 4.535 0 0 1-.096-.996c0-1.02.395-1.887 1.186-2.601.804-.727 1.767-1.09 2.889-1.09 1.34 0 2.653.452 3.941 1.357 1.301.906 2.404 2.15 3.31 3.731h-1.512c-.714-1.224-1.581-2.187-2.601-2.889-1.02-.714-2.067-1.071-3.138-1.071-.778 0-1.441.255-1.99.765-.548.498-.822 1.097-.822 1.798 0 .383.032.715.095.995.077.28.172.498.287.65h12.57Zm6.18 12.741-5.874-4.974.765-.88c.09.026.261.121.517.287.255.166.51.325.765.478.982 0 1.817-.325 2.506-.975.701-.664 1.052-1.46 1.052-2.392a2.305 2.305 0 0 1-.822.746 2.263 2.263 0 0 1-1.09.268 2.98 2.98 0 0 1-2.163-.88 2.894 2.894 0 0 1-.88-2.123c0-.817.294-1.505.88-2.067.6-.574 1.32-.86 2.162-.86 1.008 0 1.792.376 2.353 1.128.561.753.842 1.818.842 3.195 0 1.34-.414 2.48-1.243 3.425-.817.943-1.805 1.415-2.966 1.415l3.96 3.195-.765 1.014m-2.18-8.666c.458 0 .847-.172 1.166-.517.332-.344.498-.765.498-1.262 0-.46-.166-.849-.498-1.167a1.557 1.557 0 0 0-1.167-.498c-.485 0-.905.166-1.263.498a1.53 1.53 0 0 0-.516 1.167c0 .497.172.918.516 1.262a1.76 1.76 0 0 0 1.263.517m22.518-2.927v3.443c.28-.472.657-.841 1.129-1.11.471-.28.988-.42 1.55-.42.815 0 1.504.338 2.065 1.014.574.663.861 1.473.861 2.43 0 .816-.21 1.626-.631 2.43-.42.79-1.014 1.504-1.78 2.142l-1.147-.765c.714-.498 1.275-1.085 1.683-1.76.409-.676.613-1.359.613-2.048 0-.599-.166-1.11-.498-1.53-.319-.42-.708-.631-1.167-.631-.587 0-1.135.223-1.645.67-.498.446-.842 1.026-1.033 1.74v5.988h-1.263v-3.826a3.238 3.238 0 0 1-1.129.842 3.282 3.282 0 0 1-1.415.306 3.24 3.24 0 0 1-2.354-.957 3.24 3.24 0 0 1-.956-2.353c0-1.02.37-1.887 1.11-2.602a3.747 3.747 0 0 1 2.697-1.09c.306 0 .568.025.784.076.23.039.396.096.498.173l-.249 1.281a1.68 1.68 0 0 0-.497-.191 2.383 2.383 0 0 0-.536-.057c-.689 0-1.288.236-1.798.707-.498.472-.746 1.04-.746 1.703 0 .561.197 1.046.593 1.454.408.396.892.593 1.454.593.484 0 .956-.146 1.415-.44a3.6 3.6 0 0 0 1.13-1.224V7.519H65.43v11.593h-1.263v-4.075a3.712 3.712 0 0 1-1.225.957c-.459.217-.943.325-1.454.325-1.058 0-1.964-.338-2.716-1.014-.74-.676-1.11-1.486-1.11-2.43 0-.956.37-1.766 1.11-2.43.752-.675 1.658-1.013 2.716-1.013.307 0 .6.044.88.134.281.076.543.204.785.382l-.65 1.014a1.985 1.985 0 0 0-.479-.268 1.263 1.263 0 0 0-.536-.114c-.701 0-1.3.223-1.798.67-.497.446-.746.988-.746 1.626 0 .586.249 1.096.746 1.53.497.42 1.097.631 1.798.631.498 0 .983-.165 1.454-.497.472-.344.88-.816 1.225-1.416V7.52h-7.461V6.37h26.822L78.918.765l.88-.765 4.993 6.37h2.276V7.52h-2.18v11.593h-1.264V7.52h-8.398Zm17.888 11.593-5.72-4.84.63-.9c.37.307.664.537.88.69.218.14.39.21.517.21.957 0 1.767-.37 2.43-1.11.676-.752 1.014-1.658 1.014-2.716a2.337 2.337 0 0 1-.957.937c-.42.23-.867.345-1.339.345-.701 0-1.3-.262-1.798-.785a2.692 2.692 0 0 1-.746-1.894c0-.816.268-1.505.803-2.066.549-.574 1.212-.86 1.99-.86.918 0 1.703.426 2.353 1.28.65.843.976 1.857.976 3.043 0 1.313-.39 2.43-1.167 3.348-.778.918-1.71 1.377-2.793 1.377l3.692 3.042-.765.9m-2.545-8.667c.421 0 .816-.128 1.186-.383s.657-.593.861-1.014c-.191-.497-.453-.899-.784-1.205-.319-.306-.657-.46-1.014-.46-.421 0-.784.167-1.09.498a1.66 1.66 0 0 0-.44 1.167c0 .396.12.727.363.995.255.268.561.402.918.402m3.444-2.927V6.37H100v1.148h-2.162v11.593h-1.282V7.52h-2.544"/></svg>
